X: 715
T: My honey in the house
C: anon.
O: Ireland
B: Francis O'Neill: "The Dance Music of Ireland" (1907) no. 715
R: Reel
Z: Transcribed by Frank Nordberg - http://www.musicaviva.com
F: http://www.musicaviva.com/abc/tunes/ireland/oneill-1001/oneill-1001-071
5.abc
M: C|
L: 1/8
K: D
DEFG A2(AB)|cAdB cAGE|DEFG A2(AG)|EFGE (FD)D2|DEFG A2(AB)|cAdB cAGE|Addc
dfed|cAGE FDD2||
d2(fd) efge|d2(fd) edcB|AGAB c2(cA)|EFGE (FD)D2|d2fd efge|d2fd edcB|Addc
dfed|cAGE FDD2|]
W:
W:
W: From Musica Viva - http://www.musicaviva.com
W: the Internet center for free sheet music downloads.


